icons/glyphs/gliph-google-drive-round.svg

<?xml version="1.0" encoding="UTF-8" standalone="no"?><svg height="22" viewBox="0 0 5.8208332 5.8208335" width="22" xmlns="http://www.w3.org/2000/svg"><sodipodi:namedview/><metadata><rdf:RDF><cc:Work><dc:format>image/svg+xml</dc:format><dc:type/><dc:title/></cc:Work></rdf:RDF></metadata><path d="m11 0a11 11 0 0 0 -11 11 11 11 0 0 0 11 11 11 11 0 0 0 11-11 11 11 0 0 0 -11-11zm-2.6738281 3.6503906h5.3496091l4.650391 8.0546874h-5.34961zm-.6992188 1.2128906 2.6757809 4.6328126-4.6542965 8.0527342-2.6738281-4.632812zm2.0976563 8.0527348h9.3007816l-2.673829 4.632812h-9.304687z" fill="#fff" stroke-linecap="round" stroke-linejoin="round" stroke-width="2.3" transform="scale(.26458333)"/></svg>

<?xml version="1.0" encoding="UTF-8" standalone="no"?>
<!-- Created with Inkscape (http://www.inkscape.org/) -->

<svg
   xmlns:dc="http://purl.org/dc/elements/1.1/"
   xmlns:cc="http://creativecommons.org/ns#"
   xmlns:rdf="http://www.w3.org/1999/02/22-rdf-syntax-ns#"
   xmlns:svg="http://www.w3.org/2000/svg"
   xmlns="http://www.w3.org/2000/svg"
   xmlns:sodipodi="http://sodipodi.sourceforge.net/DTD/sodipodi-0.dtd"
   xmlns:inkscape="http://www.inkscape.org/namespaces/inkscape"
   width="22"
   height="22"
   viewBox="0 0 5.8208332 5.8208335"
   version="1.1"
   id="svg8"
   inkscape:version="0.92+devel 15698 custom"
   sodipodi:docname="gliph-google-drive-round.svg">
  <defs
     id="defs2" />
  <sodipodi:namedview
     id="base"
     pagecolor="#002466"
     bordercolor="#ffffff"
     borderopacity="0.29019608"
     inkscape:pageopacity="1"
     inkscape:pageshadow="2"
     inkscape:zoom="26.42008"
     inkscape:cx="-0.96883006"
     inkscape:cy="12.713849"
     inkscape:document-units="px"
     inkscape:current-layer="svg8"
     inkscape:document-rotation="0"
     showgrid="false"
     units="px"
     inkscape:showpageshadow="false"
     borderlayer="true"
     inkscape:window-width="1920"
     inkscape:window-height="1054"
     inkscape:window-x="0"
     inkscape:window-y="0"
     inkscape:window-maximized="1"
     inkscape:measure-start="9.44715,14.9205"
     inkscape:measure-end="10.6891,15.6991"
     inkscape:snap-object-midpoints="true"
     inkscape:snap-center="true"
     inkscape:snap-bbox="true"
     inkscape:snap-smooth-nodes="true"
     inkscape:snap-midpoints="true"
     inkscape:snap-intersection-paths="true"
     inkscape:object-paths="true" />
  <metadata
     id="metadata5">
    <rdf:RDF>
      <cc:Work
         rdf:about="">
        <dc:format>image/svg+xml</dc:format>
        <dc:type
           rdf:resource="http://purl.org/dc/dcmitype/StillImage" />
        <dc:title></dc:title>
      </cc:Work>
    </rdf:RDF>
  </metadata>
  <path
     style="fill:#ffffff;stroke-width:2.29999995;stroke-linecap:round;stroke-linejoin:round"
     d="M 11 0 A 11 11 0 0 0 0 11 A 11 11 0 0 0 11 22 A 11 11 0 0 0 22 11 A 11 11 0 0 0 11 0 z M 8.3261719 3.6503906 L 13.675781 3.6503906 L 18.326172 11.705078 L 12.976562 11.705078 L 8.3261719 3.6503906 z M 7.6269531 4.8632812 L 10.302734 9.4960938 L 5.6484375 17.548828 L 2.9746094 12.916016 L 7.6269531 4.8632812 z M 9.7246094 12.916016 L 19.025391 12.916016 L 16.351562 17.548828 L 7.046875 17.548828 L 9.7246094 12.916016 z "
     transform="scale(0.26458333)"
     id="path4857" />
</svg>
